svg/filled/arrow-left.svg

<svg width="24" height="24" viewBox="0 0 24 24" fill="none" xmlns="http://www.w3.org/2000/svg">
<path fill-rule="evenodd" clip-rule="evenodd" d="M2.461 11.9994C2.46129 11.5852 2.79731 11.2497 3.21153 11.25L21.0005 11.2625C21.4147 11.2628 21.7502 11.5988 21.7499 12.013C21.7497 12.4272 21.4136 12.7628 20.9994 12.7625L3.21047 12.75C2.79626 12.7497 2.46071 12.4137 2.461 11.9994Z" fill="black"/>
<path fill-rule="evenodd" clip-rule="evenodd" d="M10.5174 4.4692C10.8105 4.76183 10.8109 5.2367 10.5183 5.52986L4.05971 12L10.5183 18.4701C10.8109 18.7633 10.8105 19.2382 10.5174 19.5308C10.2242 19.8234 9.74934 19.823 9.45671 19.5299L2.4692 12.5299C2.17693 12.2371 2.17693 11.7629 2.4692 11.4701L9.45671 4.47014C9.74934 4.17699 10.2242 4.17657 10.5174 4.4692Z" fill="black"/>
</svg>

<svg xmlns="http://www.w3.org/2000/svg" viewBox="0 0 24 24" fill="currentColor">
  <path fill-rule="evenodd" d="M2.461 12a.75.75 0 01.75-.75l17.79.012a.75.75 0 11-.002 1.5L3.21 12.75a.75.75 0 01-.749-.75z" clip-rule="evenodd"/>
  <path fill-rule="evenodd" d="M10.517 4.47a.75.75 0 01.001 1.06L4.06 12l6.458 6.47a.75.75 0 01-1.061 1.06l-6.988-7a.75.75 0 010-1.06l6.988-7a.75.75 0 011.06 0z" clip-rule="evenodd"/>
</svg>
